X: 81
T:Polka de la Valentinon
M:2/4
L:1/4
O:France
K:G
Dc c/2B/2A/2G/2|AB A>B|cd A>c|1BA BG:|2BA G2|
|:A/2B/2c/2d/2 e>d|cB E>c|Bd A>c|1BA BG:|2BA G2||
Scottiches
W:
W: From "Falaleiro" http://home.t-online.de/home/pheld/homepage.htm

